X:114
T:Dunrobin Castle
S:Anderson's Pocket Companion v2 p71
M:C
L:1/8
Q:1/4=120
K:E Minor
g|BGA>G  B>GA>g|d>GB>G E>eTe2|   g>be>g          d>g  B2|d>AB>G Eee :|
d|g>gb>g a>gb>g|d>gbg  a>gTe2|   g>be>g          dg  TB2|d>AB>G Eee
g|g>gb>g a>gb>g|d>gb>g a>g e2|(3(gbg) (3(ege) (3(dgd) B2|c>BA>G Eee2|]

